X:238
T:Hauley, Hauley-Ho!
M:2/4
L:1/8
K:C
E2 CG|E>D C2|DG DG|E>D C2|
E2 CG|E>D C2|DG DG|C4||
